X:1
T:Elle a demandé à sa mère
R:
O:France
S:Chansons populaires du Morvan et du Nivernais - Achille Millien, Penavaire, Delerue
A:Morvan / Nivernais
Z: Eric Forgeot - http://anamnese.online.fr
M:4/4
L:1/8
Q:1/4=115
K:Eb
|: F A G B A G F E | F A G B A G F2 | F A G B A G F2 :|
|: [M:3/4] G c B A G2 | G c B A G2 :|
|: [M:4/4] F G A G/ F/ B A G F | F G A G/ F/ A G F2 :| 
W:Elle a demandé à sa mère 
W:Quand mariée elle serait (2x)
W:Sa mère lui a fait réponse :
W:"Dans dix ans si vous voulez... (2x)
W:Dix ans, c'est bien long ! Dix ans, c'est trop long ! (2x)
W:Dans dix ans, je n'attendrai guère ! Dans dix ans je n'attendrai pas ! (2x)
W:
W:Elle a demandé à son père
W:(...)
W:Dans cinq ans si vous voulez...(2x)
W:(...)
W:
W:Elle a demandé à sa tante
W:Dans deux ans si vous voulez...
W:
W:Elle a demandé à son oncle
W:Dans un an si vous voulez...
W:
W:/.../ (soeur/1 mois) (frère/1 jour) (M'sieur l'maire / 1 heure)


